!!!OTL: Soldatenabschied (152), S. 333
!!!id: T0321
**kern
*clefG2
*k[]
*G:
{8d
=1
8d
8g
8g
=2
8g
8b
8dd
=3
8dd
8b
8g}
=4
{4a
8dd
=5
4dd
8cc
=6
4b}
=7
{16g
16a
=8
4b
16b
16b
=9
8b
8cc
8dd
=10
8ee
8dd}
=11
{16cc
16b
=12
4a
16a
16a
=13
8a
8b
8cc
=14
8ee
8dd}
=15
{8cc
=16
4b
8dd
=17
4dd
8cc
=18
4b}
==
*-
!!!minrhy: 16
!!!meters: 3/8 ]  ZZ[5
!!!cut: Soldatenabschied (152), S. 333
!!!reg: Luxemburg
!!!trd: Singendes Volk, Esch-Alzette 1937, posth.
!!!rhy1: X_  X_X_X_  X_X_X_  X_X_X_   (x2)
!!!rhy2: X__X_  X__X_  X__
!!!key: T0321  16  G 3/8 ]  ZZ[5
!!!mod: SECHSTONSKALA DUR ?]  AMBITUS[9
!!!kad: 13553
!!!akz: -515_253_336_226_353_
!!!fot: 'a__b__c__d__e__
!!!for: 'a__b__c__c__bv_
!!!fok: '^a_^a_/__Va_\__
!! PHRAS[VORWIEGEND AUFTAKTIG]
!!!fkt: historische, Kriegs- und Soldatenlieder, Liebeslied
!!!bem: Burglinster, fff Michel Lemmer, 7.1.1914
!! THILL, Mathias:
!! PR[27] 2K[4] 2G[20] 3K[2] 3G[2] 4A[0] 4Ü[0] 5A[2] 6K[0] 6G[2]
!! 7K[0] 7G[0] 8A[0] MEHR[0] SI[31] ABS[51] SR[24] SP[8]
!! ST[21] 2k[8] 2g[29] 3k[2] 3g[2] 4d[0] 4ü[0] 5d[0] 6k[0] 6g[0]
!! 7k[0] 7g[0] 8d[0] mehr[0] si[41] dm[-10] sr[37] sp[4]
!! 1F[56] 2F[35] 3F[0] 4F[0] LF[0] 2P[9] 3P[0] 4P[0] TRI[0] DF[3] AB[55]
!! TF[0] U3K[0] U3[0] U4[0] U4Ü[0] U5[2] U6K[0] U6[2] U7K[0] U7[0]
!! N1[17] N2K[0] N2[31] N3K[0] N3[27] N4[12] N4Ü[0] N5[8] N6K[0] N6[2]
!!!n7k: 0] N7[0] O1[0] O2K[0] O2[0] O3K[0] O3[0] HÖ[0
